dist/images/ico/ico_date_arrow_next.svg

<svg width="30" height="30" viewBox="0 0 30 30" fill="none" xmlns="http://www.w3.org/2000/svg">
<path d="M12.2665 18.4676L15.8018 14.9955L12.2665 11.5235C11.9112 11.1745 11.9112 10.6107 12.2665 10.2617C12.6219 9.91275 13.1959 9.91275 13.5513 10.2617L17.7335 14.3691C18.0888 14.7181 18.0888 15.2819 17.7335 15.6309L13.5513 19.7383C13.1959 20.0872 12.6219 20.0872 12.2665 19.7383C11.9203 19.3893 11.9112 18.8166 12.2665 18.4676Z" fill="#A4A4A4"/>
</svg>

<svg width="30" height="30" fill="none" xmlns="http://www.w3.org/2000/svg"><path d="M12.267 18.468l3.535-3.473-3.535-3.471a.88.88 0 010-1.262.92.92 0 011.284 0l4.182 4.107a.88.88 0 010 1.262l-4.182 4.107a.92.92 0 01-1.284 0 .899.899 0 010-1.27z" fill="#A4A4A4"/></svg>
